Communication/document.svg

<svg xmlns="http://www.w3.org/2000/svg" viewBox="0 0 24 24" style="enable-background:new 0 0 24 24" xml:space="preserve"><path d="M20.7 8.5 12.9.7c-.4-.4-1-.7-1.6-.7H5.9c-.8 0-1.7.4-2.2 1s-1 1.4-1 2.2v17.7c0 .8.3 1.6.9 2.2s1.4.9 2.2.9h12.3c.8 0 1.6-.3 2.2-.9.6-.6.9-1.4.9-2.2V10.1c.2-.6-.1-1.2-.5-1.6zm-1 .4h-5.9c-.3 0-.7-.1-.9-.4-.2-.2-.4-.6-.4-.9V1.7l7.2 7.2zm.7 11.9c0 .6-.2 1.1-.6 1.5-.4.4-1 .6-1.5.6H5.9c-.6 0-1.1-.2-1.5-.6-.4-.4-.6-1-.6-1.5V3.2c-.1-.6.2-1.2.5-1.6.5-.4 1-.6 1.6-.6h5.7v6.6c0 .6.2 1.1.7 1.6s1 .7 1.6.7h6.6v.2c-.1 0-.1 10.7-.1 10.7z" style="fill:#263238"/></svg>

<?xml version="1.0" encoding="utf-8"?>
<!-- Generator: Adobe Illustrator 25.4.1, SVG Export Plug-In . SVG Version: 6.00 Build 0)  -->
<svg version="1.1" id="Capa_1" xmlns="http://www.w3.org/2000/svg" xmlns:xlink="http://www.w3.org/1999/xlink" x="0px" y="0px"
	 viewBox="0 0 24 24" style="enable-background:new 0 0 24 24;" xml:space="preserve">
<style type="text/css">
	.st0{fill:#263238;}
</style>
<g>
	<path class="st0" d="M20.7,8.5l-7.8-7.8c-0.4-0.4-1-0.7-1.6-0.7H5.9C5.1,0,4.2,0.4,3.7,1s-1,1.4-1,2.2v17.7c0,0.8,0.3,1.6,0.9,2.2
		S5,24,5.8,24h12.3c0.8,0,1.6-0.3,2.2-0.9c0.6-0.6,0.9-1.4,0.9-2.2V10.1C21.4,9.5,21.1,8.9,20.7,8.5z M19.7,8.9h-5.9
		c-0.3,0-0.7-0.1-0.9-0.4c-0.2-0.2-0.4-0.6-0.4-0.9V1.7L19.7,8.9z M20.4,20.8c0,0.6-0.2,1.1-0.6,1.5c-0.4,0.4-1,0.6-1.5,0.6H5.9
		c-0.6,0-1.1-0.2-1.5-0.6c-0.4-0.4-0.6-1-0.6-1.5V3.2C3.7,2.6,4,2,4.3,1.6C4.8,1.2,5.3,1,5.9,1h5.5c0.1,0,0.2,0,0.2,0v6.6
		c0,0.6,0.2,1.1,0.7,1.6s1,0.7,1.6,0.7h6.6c0,0.1,0,0.1,0,0.2C20.4,10.1,20.4,20.8,20.4,20.8z"/>
</g>
</svg>
